X: 10612
T: CORINTHEANS' HORNPIPE
C:
%R: hornpipe, reel
B: Elias Howe "The Musician's Companion" Part 1 1842 p.61 #2
S: http://imslp.org/wiki/The_Musician's_Companion_(Howe,_Elias)
Z: 2015 John Chambers <jc:trillian.mit.edu>
M: 2/4
L: 1/16
K: Bb
% - - - - - - - - - - - - - - - - - - - - - - - - -
(de) |\
fbfd Bdgf | f=e_ec ABcA | BABc dBed | cBcd cde=e |\
fbfd Bdgf | f=e_ec ABcA | dfBd ceAc | B2B2B2 :|
|: F2 |\
FAcA FecA | BABc defd | bagf =efga | bgf=e f2ga |\
bagf _edcB | Acgf f=e_ec | dfBd ceAc | B2B2B2 :|
% - - - - - - - - - - - - - - - - - - - - - - - - -


